Luddite.svg

<?xml version="1.0" encoding="UTF-8" standalone="no"?>
<!-- Created with Inkscape (http://www.inkscape.org/) -->

<svg
   width="141.55499mm"
   height="163.435mm"
   viewBox="0 0 141.55499 163.43499"
   version="1.1"
   id="svg1"
   xml:space="preserve"
   inkscape:version="1.3.2 (091e20e, 2023-11-25, custom)"
   sodipodi:docname="Luddite.svg"
   xmlns:inkscape="http://www.inkscape.org/namespaces/inkscape"
   xmlns:sodipodi="http://sodipodi.sourceforge.net/DTD/sodipodi-0.dtd"
   xmlns="http://www.w3.org/2000/svg"
   xmlns:svg="http://www.w3.org/2000/svg"><sodipodi:namedview
     id="namedview1"
     pagecolor="#ffffff"
     bordercolor="#000000"
     borderopacity="0.25"
     inkscape:showpageshadow="2"
     inkscape:pageopacity="0.0"
     inkscape:pagecheckerboard="0"
     inkscape:deskcolor="#d1d1d1"
     inkscape:document-units="mm"
     inkscape:zoom="1.4142136"
     inkscape:cx="119.14749"
     inkscape:cy="339.0577"
     inkscape:window-width="1920"
     inkscape:window-height="1009"
     inkscape:window-x="-8"
     inkscape:window-y="-8"
     inkscape:window-maximized="1"
     inkscape:current-layer="g1" /><defs
     id="defs1" /><g
     inkscape:label="Layer 1"
     inkscape:groupmode="layer"
     id="layer1"><g
       style="fill:#000000"
       id="g2"
       transform="matrix(-0.188509,0.04431954,-0.04431954,-0.188509,125.44877,120.24013)"><g
         id="g1">
	<path
   id="path1"
   d="m 51.292594,478.70347 c 19.604216,3.7168 40.670133,-2.10422 55.883156,-17.32041 0.105,-0.098 0.20069,-0.19681 0.29669,-0.30581 l 56.28333,-65.30093 -10.76927,-57.17473 0.005,0.001 -2.54697,-4.68612 -5.74618,-1.25776 -18.78627,-17.62994 4.8893,-4.53052 -1.2804,-3.82363 0.0432,-0.0556 -0.0542,0.0558 -8.21176,-25.09756 -101.913744,91.57535 c -0.073,0.071 -0.145121,0.1487 -0.224121,0.2187 -24.3448518,24.34588 -24.3440624,63.95939 7.93e-4,88.30921 9.130821,9.12894 20.368716,14.79267 32.131246,17.02278 z m 4.067844,-37.0192 c -4.340947,-0.84102 -8.488071,-2.94247 -11.851803,-6.30354 -8.966946,-8.96094 -8.96537,-23.50395 0.0015,-32.46789 8.969946,-8.96294 36.90229,-22.25493 45.873236,-13.29199 8.966946,8.96394 -4.436735,36.79849 -13.403681,45.75943 -5.606839,5.60557 -13.384386,7.70569 -20.61929,6.30399 z m 152.603652,-57.65847 56.62087,-65.69035 -80.57803,-6.29588 22.05443,43.94788 -4.69036,2.8143 z m -62.39016,-102.50881 124.58654,-9.19719 20.14164,-23.37138 c 1.765,-1.773 14.20337,-0.1201 15.74837,-2.0241 45.49976,17.16694 77.89082,-6.14679 114.46464,-42.71561 26.67482,-26.68682 61.14377,-49.93506 57.89477,-87.59282 -0.368,-4.271 -3.18162,-7.93851 -7.20062,-9.40151 -4.02894,-1.472 -8.54087,-0.46955 -11.57181,2.55645 L 397.62271,171.78067 328.8757,150.01185 307.10678,81.264969 369.12274,19.249931 c 3.035,-3.031982 -6.61493,-7.622353 -8.07687,-11.6443283 -1.477,-4.029976 -6.37783,2.5601733 -10.65783,2.1901738 C 312.72528,6.5507963 302.3434,26.717951 275.66258,53.402789 239.12076,89.947573 214.80316,127.27542 231.9391,172.76312 c -1.873,1.578 -4.04288,12.86287 -5.86588,14.66587 l -84.59691,76.11471 z"
   sodipodi:nodetypes="sccccccccccccccccssccccsccccccccccccccccccccccccccc" />
</g></g><g
       id="g3"
       transform="scale(0.26458333)"><path
         d="m 267.5,28.9 242.5,140 v 280 L 267.5,588.9 25,448.9 v -280 L 267.5,28.9 M 267.5,0 255,7.2 12.5,147.2 0,154.4 v 308.9 l 12.5,7.2 242.5,140 12.5,7.2 12.5,-7.2 242.5,-140 12.5,-7.2 V 154.4 L 522.5,147.2 280,7.2 Z"
         id="path2-3" /></g></g></svg>

<?xml version="1.0" encoding="UTF-8" standalone="no"?>
<!-- Created with Inkscape (http://www.inkscape.org/) -->

<svg
   width="141.55499mm"
   height="163.435mm"
   viewBox="0 0 141.55499 163.43499"
   version="1.1"
   id="svg1"
   xml:space="preserve"
   inkscape:version="1.3.2 (091e20e, 2023-11-25, custom)"
   sodipodi:docname="Luddite.svg"
   xmlns:inkscape="http://www.inkscape.org/namespaces/inkscape"
   xmlns:sodipodi="http://sodipodi.sourceforge.net/DTD/sodipodi-0.dtd"
   xmlns="http://www.w3.org/2000/svg"
   xmlns:svg="http://www.w3.org/2000/svg"><sodipodi:namedview
     id="namedview1"
     pagecolor="#ffffff"
     bordercolor="#000000"
     borderopacity="0.25"
     inkscape:showpageshadow="2"
     inkscape:pageopacity="0.0"
     inkscape:pagecheckerboard="0"
     inkscape:deskcolor="#d1d1d1"
     inkscape:document-units="mm"
     inkscape:zoom="1"
     inkscape:cx="564"
     inkscape:cy="354.5"
     inkscape:window-width="1920"
     inkscape:window-height="1009"
     inkscape:window-x="-8"
     inkscape:window-y="-8"
     inkscape:window-maximized="1"
     inkscape:current-layer="layer1" /><defs
     id="defs1" /><g
     inkscape:label="Layer 1"
     inkscape:groupmode="layer"
     id="layer1"><g
       style="fill:#000000"
       id="g2"
       transform="matrix(-0.188509,0.04431954,-0.04431954,-0.188509,125.44877,120.24013)"><g
         id="g1">
	<path
   id="path1"
   d="M 51.292594 478.70347 C 70.89683 482.42028 91.96271 476.59926 107.17575 461.38306 C 107.28075 461.28506 107.37644 461.18625 107.47244 461.07725 L 163.75577 395.77632 L 152.9865 338.60159 L 152.9917 338.60281 L 150.44473 333.91669 L 144.69855 332.65893 L 125.91228 315.02899 L 130.80158 310.49847 L 129.52118 306.67484 L 129.56441 306.61921 L 129.51018 306.67499 L 121.29842 281.57743 L 19.384676 373.15278 C 19.311676 373.22378 19.239555 373.30148 19.160555 373.37148 C -5.1843215 397.71738 -5.1835315 437.33084 19.161348 461.68069 C 28.292178 470.80964 39.530052 476.47336 51.292594 478.70347 z M 55.360438 441.68427 C 51.019487 440.84325 46.87237 438.74181 43.508635 435.38073 C 34.54168 426.41978 34.543256 411.87679 43.510173 402.91284 C 52.480128 393.94989 80.412454 380.6579 89.383409 389.62085 C 98.350364 398.5848 84.946683 426.41933 75.979728 435.38028 C 70.372883 440.98586 62.59535 443.08597 55.360438 441.68427 z M 186.46853 369.42103 L 290.30211 248.94842 C 292.06711 247.17542 304.50753 248.8288 306.05253 246.9248 C 351.55233 264.09175 383.94127 240.77756 420.51512 204.20871 C 447.18997 177.52186 481.65889 154.27369 478.40989 116.61589 C 478.04189 112.34489 475.22827 108.67738 471.20927 107.21438 C 467.18032 105.74238 462.66841 106.74483 459.63746 109.77083 L 397.62271 171.78067 L 328.8757 150.01185 L 307.10678 81.264969 L 369.12274 19.249931 C 372.15774 16.217946 362.50782 11.627582 361.04587 7.6056027 C 359.56887 3.5756227 354.66804 10.165776 350.38804 9.7957765 C 312.72524 6.550793 302.34343 26.717924 275.66258 53.402789 C 239.12073 89.947609 214.80315 127.27537 231.9391 172.76312 C 230.0661 174.34112 227.89622 185.62599 226.07322 187.42899 L 137.05676 267.41709 L 148.73517 286.74776 L 151.55363 291.27019 L 156.91899 286.30058 L 184.58346 341.38641 L 184.57047 341.38335 L 179.85307 344.19162 L 179.89203 344.20078 L 186.46853 369.42103 z " />
</g></g><g
       id="g3"
       transform="scale(0.26458333)"><path
         d="m 267.5,28.9 242.5,140 v 280 L 267.5,588.9 25,448.9 v -280 L 267.5,28.9 M 267.5,0 255,7.2 12.5,147.2 0,154.4 v 308.9 l 12.5,7.2 242.5,140 12.5,7.2 12.5,-7.2 242.5,-140 12.5,-7.2 V 154.4 L 522.5,147.2 280,7.2 Z"
         id="path2-3" /></g></g></svg>
